X:1961
T:Minuet
C:Domenico Scarlatti
R:Minuet
Z:Transcribed by Frank Nordberg - http://www.musicaviva.com
F:http://abc.musicaviva.com/tunes/scarlatti-domenico/scarlatti-minuet01.abc
V:1 Program 1 6 %Harpsichord
V:2 Program 1 6 bass %Harpsichord
m:Tn3 = o/n/4o/4 n/4o/4n/4m/4 n
m:Tn = (3o/4n/4o/4 n/
M:3/8
L:1/8
Q:3/8=72
K:C
V:1
c/e/g2|A/B/c2|B/d/f2|G/A/B2|
V:2
C2E|F2E|D2B,|E2D|
%
V:1
A/c/e2|F/G/A2|G/B/d2|E/G/c2|
V:2
C2A,|D2C|B,2G,|C2C,|
%
V:1
A/c/f2|Tdc/B/g|f/e/d/c/d/B/ Tc3:|
V:2
F,2C,|G,,G,E,|F,E, G,,|C,3:|
%
V:1
|:c/e/g2|^f/a/c2|c/_e/g2|^f/a/c2|
V:2
|:C,2C|D2D,|_E,2C,|D,2=E,|
%
V:1
c/e/d/c/B/A/|B/c/d/B/A/G/|e/G/BTA|G/B/d2|
V:2
^F,D,F,|G,2B,,|C,D, D,,|G,2D|
%
V:1
G/c/_e2|F/B/d2|_E/G/c2|B/d/g2|
V:2
_E2E|B,2B,|C2C|G,2G,|
%
V:1
F/B/d2|E/G/c/G/g|f/e/d/c/d/B/|Tc3:|
V:2
G,,2G,,|C,2E,|F,G, G,,|C,3:|
W:
W:
W:  From Musica Viva - http://www.musicaviva.com
W:  the Internet center for free sheet music downloads.


